src/assets/img/Careers/icons/marketcharticon.svg

<svg width="34" height="34" viewBox="0 0 34 34" fill="none" xmlns="http://www.w3.org/2000/svg">
<g id="Icon">
<path id="Subtract" fill-rule="evenodd" clip-rule="evenodd" d="M3.1875 3.1875C2.6007 3.1875 2.125 3.6632 2.125 4.25C2.125 4.8368 2.6007 5.3125 3.1875 5.3125H4.25V20.1875C4.25 22.5347 6.15279 24.4375 8.5 24.4375H10.2134L8.55452 29.414C8.36896 29.9707 8.66982 30.5724 9.22651 30.758C9.7832 30.9435 10.3849 30.6427 10.5705 30.086L11.0366 28.6875H22.9634L23.4295 30.086C23.6151 30.6427 24.2168 30.9435 24.7735 30.758C25.3302 30.5724 25.631 29.9707 25.4455 29.414L23.7866 24.4375H25.5C27.8472 24.4375 29.75 22.5347 29.75 20.1875V5.3125H30.8125C31.3993 5.3125 31.875 4.8368 31.875 4.25C31.875 3.6632 31.3993 3.1875 30.8125 3.1875H3.1875ZM11.745 26.5625L12.4533 24.4375H21.5467L22.255 26.5625H11.745ZM22.3125 9.5625C22.3125 8.9757 21.8368 8.5 21.25 8.5C20.6632 8.5 20.1875 8.9757 20.1875 9.5625V18.0625C20.1875 18.6493 20.6632 19.125 21.25 19.125C21.8368 19.125 22.3125 18.6493 22.3125 18.0625V9.5625ZM18.0625 12.75C18.0625 12.1632 17.5868 11.6875 17 11.6875C16.4132 11.6875 15.9375 12.1632 15.9375 12.75V18.0625C15.9375 18.6493 16.4132 19.125 17 19.125C17.5868 19.125 18.0625 18.6493 18.0625 18.0625V12.75ZM13.8125 15.9375C13.8125 15.3507 13.3368 14.875 12.75 14.875C12.1632 14.875 11.6875 15.3507 11.6875 15.9375V18.0625C11.6875 18.6493 12.1632 19.125 12.75 19.125C13.3368 19.125 13.8125 18.6493 13.8125 18.0625V15.9375Z" fill="#CAFF33"/>
</g>
</svg>

<svg width="34" height="34" fill="none" xmlns="http://www.w3.org/2000/svg"><path fill-rule="evenodd" clip-rule="evenodd" d="M3.188 3.188a1.063 1.063 0 0 0 0 2.124H4.25v14.875a4.25 4.25 0 0 0 4.25 4.25h1.713l-1.658 4.977a1.063 1.063 0 0 0 2.015.672l.467-1.398h11.926l.466 1.398a1.063 1.063 0 0 0 2.017-.672l-1.66-4.977H25.5a4.25 4.25 0 0 0 4.25-4.25V5.313h1.063a1.063 1.063 0 0 0 0-2.125H3.188Zm8.557 23.375.708-2.125h9.094l.708 2.125h-10.51Zm10.568-17a1.063 1.063 0 0 0-2.125 0v8.5a1.063 1.063 0 0 0 2.125 0v-8.5Zm-4.25 3.187a1.063 1.063 0 0 0-2.125 0v5.313a1.063 1.063 0 0 0 2.124 0V12.75Zm-4.25 3.188a1.063 1.063 0 0 0-2.126 0v2.124a1.063 1.063 0 0 0 2.126 0v-2.125Z" fill="#CAFF33"/></svg>
